X: 349
T: The True Hibernian
%R: jig
Z: 2014 John Chambers <jc:trillian.mit.edu>
B: Preston "Twenty four Country Dances for the Year 1798" p.155 #1
F: http://www.vwml.org/browse/browse-collections-dance-tune-books/browse-prestons1798# 2014-8-10
N: Dropped flag from chord in bar 4, to fix the rhythm
N: Dropped a final 8th rest at the end, because it makes no sense.
M: 6/8
L: 1/8
K: D
A/G/ |\
(FA)A (Ad)d | (df)f (afd) | (bag) (fed) | cae [aec]2A/G/ |\
FAA Add | dff afd | Bge ABc | ddd d2 :|
|: d |\
cea afd | cea a2d | cea afd | bee e2f/g/ |\
afd B2A | afd B2A | Bcd efg | fdd d2 :|
% - - - - - - - - - - - - - - - - - - - - - - - - -
%%begintext align
%% Cast down one Cu: turn your partner half
%% round, up again & turn your place; lead
%% down 2 Cu: up again one Cu: Allemande.
%%endtext
% - - - - - - - - - - - - - - - - - - - - - - - - -

%%sep 1 1 500
%%sep 1 1 500
